assets/img/an-pic/qv-ft-1.svg

<svg width="100" height="78" viewBox="0 0 100 78" fill="none" xmlns="http://www.w3.org/2000/svg">
<path d="M97.8518 36.3828C97.4368 35.6599 96.8805 35.028 96.2161 34.5247C95.5517 34.0214 94.7928 33.6569 93.9846 33.4531C90.425 32.5565 86.7315 32.3182 83.0862 32.75C84.0293 27.4198 83.681 21.9412 82.0706 16.7734C81.6006 15.3034 80.6002 14.061 79.2643 13.2884C77.9283 12.5157 76.3526 12.2681 74.844 12.5937C71.2143 13.3976 67.7515 14.825 64.6096 16.8125C62.105 11.5365 58.3831 6.93098 53.7503 3.37496C52.671 2.55751 51.3542 2.11511 50.0003 2.11511C48.6464 2.11511 47.3295 2.55751 46.2503 3.37496C41.6174 6.93098 37.8955 11.5365 35.3909 16.8125C32.249 14.825 28.7862 13.3976 25.1565 12.5937C23.648 12.2681 22.0722 12.5157 20.7363 13.2884C19.4003 14.061 18.3999 15.3034 17.93 16.7734C16.3195 21.9412 15.9713 27.4198 16.9143 32.75C13.269 32.3182 9.5755 32.5565 6.01589 33.4531C5.20855 33.6565 4.45034 34.0201 3.78634 34.5224C3.12233 35.0246 2.56609 35.6553 2.15067 36.3768C1.73524 37.0983 1.46913 37.896 1.36813 38.7224C1.26714 39.5488 1.33333 40.3871 1.56277 41.1875C2.92996 46.1093 7.14871 55.5234 19.9612 62.9062C32.7737 70.289 43.9456 70.25 49.9612 70.25H50.0393C56.055 70.25 67.305 70.25 80.0393 62.9062C92.7737 55.5625 97.0706 46.1093 98.4378 41.1875C98.6645 40.3879 98.7294 39.5511 98.6288 38.7261C98.5282 37.9011 98.2641 37.1045 97.8518 36.3828ZM50.0003 8.37496C53.7503 11.1875 62.5003 19.4687 62.5003 35.875C62.5003 52.2812 53.7503 60.5625 50.0003 63.375C46.2503 60.5625 37.5003 52.2812 37.5003 35.875C37.5003 19.4687 46.2503 11.1875 50.0003 8.37496ZM7.53933 39.5078C9.96121 38.8828 13.7503 38.414 18.6331 39.2734C19.6246 42.1127 20.8938 44.8473 22.4221 47.4375C25.7717 53.2249 30.1696 58.3381 35.3909 62.5156C31.0762 61.4124 26.9353 59.7166 23.0862 57.4765C12.2268 51.1875 8.71121 43.4921 7.53933 39.5078ZM76.9143 57.4765C73.0652 59.7166 68.9243 61.4124 64.6096 62.5156C69.831 58.3381 74.2288 53.2249 77.5784 47.4375C79.1067 44.8473 80.3759 42.1127 81.3675 39.2734C85.0261 38.5716 88.7906 38.6381 92.4221 39.4687C91.2893 43.4921 87.7737 51.1875 76.9143 57.4765Z" fill="#00A0E3"/>
</svg>

<svg width="100" height="78" fill="none" xmlns="http://www.w3.org/2000/svg"><path d="M97.852 36.383a6.21 6.21 0 00-3.867-2.93 30.116 30.116 0 00-10.899-.703 33.867 33.867 0 00-1.015-15.977 6.21 6.21 0 00-7.227-4.18 32.147 32.147 0 00-10.234 4.22A36.874 36.874 0 0053.75 3.374a6.211 6.211 0 00-7.5 0 36.874 36.874 0 00-10.86 13.438 32.147 32.147 0 00-10.233-4.22 6.211 6.211 0 00-7.227 4.18 33.867 33.867 0 00-1.016 15.977 30.116 30.116 0 00-10.898.703 6.21 6.21 0 00-4.453 7.734C2.93 46.11 7.149 55.523 19.96 62.907c12.813 7.382 23.985 7.343 30 7.343h.078c6.016 0 17.266 0 30-7.344 12.735-7.343 17.032-16.797 18.399-21.718a6.25 6.25 0 00-.586-4.805zM50 8.375c3.75 2.813 12.5 11.094 12.5 27.5s-8.75 24.688-12.5 27.5c-3.75-2.813-12.5-11.094-12.5-27.5s8.75-24.688 12.5-27.5zM7.54 39.508c2.421-.625 6.21-1.094 11.093-.235a45.741 45.741 0 003.79 8.164 53.868 53.868 0 0012.967 15.08 48.2 48.2 0 01-12.305-5.04C12.226 51.189 8.711 43.492 7.54 39.508zm69.374 17.968a48.2 48.2 0 01-12.304 5.04 53.866 53.866 0 0012.968-15.078 45.748 45.748 0 003.79-8.165 26.874 26.874 0 0111.054.196c-1.133 4.023-4.648 11.718-15.508 18.008z" fill="#00A0E3"/></svg>
